Origami/48x48/apps/dmd-doc.svg

<svg width="48" height="48" version="1" xmlns="http://www.w3.org/2000/svg">
 <rect transform="matrix(0,-1,-1,0,0,0)" x="-40" y="-44" width="32" height="40" rx="2" ry="2" style="fill:#c52f2f"/>
 <path d="m4 26v12c0 1.108 0.892 2 2 2h36c1.108 0 2-0.892 2-2v-5.263672c-12.27125-4.338963-30.037202-6.663733-40-6.736328z" style="opacity:.2"/>
 <path d="m6 8c-1.108 0-2 0.892-2 2v1c0-1.108 0.892-2 2-2h36c1.108 0 2 0.892 2 2v-1c0-1.108-0.892-2-2-2z" style="fill:#ffffff;opacity:.2"/>
 <path d="m4 38v1c0 1.108 0.892 2 2 2h36c1.108 0 2-0.892 2-2v-1c0 1.108-0.892 2-2 2h-36c-1.108 0-2-0.892-2-2z" style="opacity:.2"/>
 <path d="m36 21c0 3.313708-2.686292 6-6 6-0.855241 0-1.668689-0.178938-2.404948-0.501417-2.116443-0.926996-0.981678-2.578932-0.981678-5.037399 0-1.151395-2.289055-2.688224-1.726785-3.601751 1.055939-1.715601 2.951097-2.859433 5.113411-2.859433 3.313708 0 6 2.686292 6 6z" style="opacity:.2"/>
 <path d="m36 20c0 3.313708-2.686292 6-6 6-0.855241 0-1.668689-0.178938-2.404948-0.501417-2.116443-0.926996-0.981678-2.578932-0.981678-5.037399 0-1.151395-2.289055-2.688224-1.726785-3.601751 1.055939-1.715601 2.951097-2.859433 5.113411-2.859433 3.313708 0 6 2.686292 6 6z" style="fill:#ff783e"/>
 <circle cx="38" cy="16" r="2" style="opacity:.2"/>
 <circle cx="38" cy="15" r="2" style="fill:#ffba46"/>
 <path d="m9 14c-0.554 0-1 0.446-1 1v20c0 0.554 0.446 1 1 1h1.714844 0.285156 8.285156c0.02215 0 0.04088-0.01484 0.0625-0.01758 5.932131-0.187576 10.645823-5.047328 10.652344-10.98242-0.00372-5.945452-4.730989-10.811988-10.673828-10.988281-0.01433-0.001189-0.026465-0.011719-0.041016-0.011719h-8.285156-0.285156zm4 5h6c4 0 6 2.134007 6 6s-2 6-6 6h-6z" style="opacity:.2"/>
 <path d="m9 13c-0.554 0-1 0.446-1 1v20c0 0.554 0.446 1 1 1h1.714844 0.285156 8.285156c0.02215 0 0.04088-0.01484 0.0625-0.01758 5.932131-0.187576 10.645823-5.047328 10.652344-10.98242-0.00372-5.945452-4.730989-10.811988-10.673828-10.988281-0.01433-0.001189-0.026465-0.011719-0.041016-0.011719h-8.285156-0.285156zm4 5h6c4 0 6 2.134007 6 6s-2 6-6 6h-6z" style="fill:#ffffff"/>
</svg>

<svg xmlns="http://www.w3.org/2000/svg" width="48" height="48" version="1">
 <rect width="32" height="40" x="-40" y="-44" rx="2" ry="2" transform="matrix(0,-1,-1,0,0,0)" style="fill:#c52f2f"/>
 <path style="opacity:0.2" d="m 4,26 0,12 c 0,1.108 0.892,2 2,2 l 36,0 c 1.108,0 2,-0.892 2,-2 l 0,-5.263672 C 31.72875,28.397365 13.962798,26.072595 4,26 Z"/>
 <path d="M 6,8 C 4.892,8 4,8.892 4,10 l 0,1 C 4,9.892 4.892,9 6,9 l 36,0 c 1.108,0 2,0.892 2,2 l 0,-1 C 44,8.892 43.108,8 42,8 Z" style="opacity:0.2;fill:#ffffff"/>
 <path style="opacity:0.2" d="m 4,38 0,1 c 0,1.108 0.892,2 2,2 l 36,0 c 1.108,0 2,-0.892 2,-2 l 0,-1 c 0,1.108 -0.892,2 -2,2 L 6,40 C 4.892,40 4,39.108 4,38 Z"/>
 <path d="m 36,21 c 0,3.313708 -2.686292,6 -6,6 -0.855241,0 -1.668689,-0.178938 -2.404948,-0.501417 -2.116443,-0.926996 -0.981678,-2.578932 -0.981678,-5.037399 0,-1.151395 -2.289055,-2.688224 -1.726785,-3.601751 C 25.942528,16.143832 27.837686,15 30,15 c 3.313708,0 6,2.686292 6,6 z" style="opacity:0.2"/>
 <path style="fill:#ff783e" d="m 36,20 c 0,3.313708 -2.686292,6 -6,6 -0.855241,0 -1.668689,-0.178938 -2.404948,-0.501417 -2.116443,-0.926996 -0.981678,-2.578932 -0.981678,-5.037399 0,-1.151395 -2.289055,-2.688224 -1.726785,-3.601751 C 25.942528,15.143832 27.837686,14 30,14 c 3.313708,0 6,2.686292 6,6 z"/>
 <circle style="opacity:0.2" cx="38" cy="16" r="2"/>
 <circle cx="38" cy="15" r="2" style="fill:#ffba46"/>
 <path d="m 9,14 c -0.554,0 -1,0.446 -1,1 l 0,20 c 0,0.554 0.446,1 1,1 L 10.714844,36 11,36 l 8.285156,0 c 0.02215,0 0.04088,-0.01484 0.0625,-0.01758 C 25.279787,35.794844 29.993479,30.935092 30,25 29.99628,19.054548 25.269011,14.188012 19.326172,14.011719 19.311842,14.01053 19.299707,14 19.285156,14 L 11,14 10.714844,14 Z m 4,5 6,0 c 4,0 6,2.134007 6,6 0,3.865993 -2,6 -6,6 l -6,0 z" style="opacity:0.2"/>
 <path style="fill:#ffffff" d="m 9,13 c -0.554,0 -1,0.446 -1,1 l 0,20 c 0,0.554 0.446,1 1,1 L 10.714844,35 11,35 l 8.285156,0 c 0.02215,0 0.04088,-0.01484 0.0625,-0.01758 C 25.279787,34.794844 29.993479,29.935092 30,24 29.99628,18.054548 25.269011,13.188012 19.326172,13.011719 19.311842,13.01053 19.299707,13 19.285156,13 L 11,13 10.714844,13 Z m 4,5 6,0 c 4,0 6,2.134007 6,6 0,3.865993 -2,6 -6,6 l -6,0 z"/>
</svg>
